svgs/duotone/blueberries.svg

<svg xmlns="http://www.w3.org/2000/svg" viewBox="0 0 512 512"><!--! Font Awesome Pro 6.0.0-alpha3 by @fontawesome - https://fontawesome.com License - https://fontawesome.com/license (Commercial License) --><defs><style>.fa-secondary{opacity:.4}</style></defs><path class="fa-primary" d="M176 160C78.8 160 0 238.8 0 336C0 433.2 78.8 512 176 512s176-78.8 176-176C352 238.8 273.2 160 176 160zM224 288H192v32c0 8.844-7.156 16-16 16S160 328.8 160 320V288H128C119.2 288 112 280.8 112 272S119.2 256 128 256h32V224c0-8.844 7.156-16 16-16S192 215.2 192 224v32h32c8.844 0 16 7.156 16 16S232.8 288 224 288zM416 96h-32V64c0-8.844-7.156-16-16-16S352 55.16 352 64v32h-32c-8.844 0-16 7.156-16 16S311.2 128 320 128h32v32c0 8.844 7.156 16 16 16S384 168.8 384 160V128h32c8.844 0 16-7.156 16-16S424.8 96 416 96z"/><path class="fa-secondary" d="M336 0C255.3 0 187.4 54.39 166.7 128.5C169.8 128.3 172.9 128 176 128c114.9 0 208 93.13 208 208c0 3.148-.333 6.211-.4717 9.324C457.6 324.6 512 256.7 512 176C512 78.8 433.2 0 336 0zM416 128h-32v32c0 8.844-7.156 16-16 16S352 168.8 352 160V128h-32c-8.844 0-16-7.156-16-16S311.2 96 320 96h32V64c0-8.844 7.156-16 16-16S384 55.16 384 64v32h32c8.844 0 16 7.156 16 16S424.8 128 416 128zM224 256H192V224c0-8.844-7.156-16-16-16S160 215.2 160 224v32H128C119.2 256 112 263.2 112 272S119.2 288 128 288h32v32c0 8.844 7.156 16 16 16S192 328.8 192 320V288h32c8.844 0 16-7.156 16-16S232.8 256 224 256z"/></svg>

<svg xmlns="http://www.w3.org/2000/svg" viewBox="0 0 512 512"><!--! Font Awesome Pro 6.4.2 by @fontawesome - https://fontawesome.com License - https://fontawesome.com/license (Commercial License) Copyright 2023 Fonticons, Inc. --><defs><style>.fa-secondary{opacity:.4}</style></defs><path class="fa-primary" d="M384 64V96h32c8.8 0 16 7.2 16 16s-7.2 16-16 16H384v32c0 8.8-7.2 16-16 16s-16-7.2-16-16V128H320c-8.8 0-16-7.2-16-16s7.2-16 16-16h32V64c0-8.8 7.2-16 16-16s16 7.2 16 16zM0 336a176 176 0 1 1 352 0A176 176 0 1 1 0 336zM176 208c-8.8 0-16 7.2-16 16v32H128c-8.8 0-16 7.2-16 16s7.2 16 16 16h32v32c0 8.8 7.2 16 16 16s16-7.2 16-16V288h32c8.8 0 16-7.2 16-16s-7.2-16-16-16H192V224c0-8.8-7.2-16-16-16z"/><path class="fa-secondary" d="M351.3 351.3C441.4 343.6 512 268 512 176C512 78.8 433.2 0 336 0C244 0 168.4 70.6 160.7 160.7c5.1-.4 10.2-.7 15.3-.7c97.2 0 176 78.8 176 176c0 5.2-.2 10.3-.7 15.3zM368 48c8.8 0 16 7.2 16 16V96h32c8.8 0 16 7.2 16 16s-7.2 16-16 16H384v32c0 8.8-7.2 16-16 16s-16-7.2-16-16V128H320c-8.8 0-16-7.2-16-16s7.2-16 16-16h32V64c0-8.8 7.2-16 16-16zM192 224c0-8.8-7.2-16-16-16s-16 7.2-16 16v32H128c-8.8 0-16 7.2-16 16s7.2 16 16 16h32v32c0 8.8 7.2 16 16 16s16-7.2 16-16V288h32c8.8 0 16-7.2 16-16s-7.2-16-16-16H192V224z"/></svg>
